X:1     %Music
T:La Pique
B:Singing Together, Summer 1979, BBC Publications
F:http://www.folkinfo.org/songs
M:3/4     %Meter
L:1/8     %
K:G
B2 |B2 c2 B2 |A G3 F2 |G2 F2 D2 | ^D4
w:It's of a fine fri-gate, La Pique was her name,
 B,2 |E3 F E2 |G2 F2 E2 |(D2 E2) F2 | G4 
w: All in the West In-dies she bore_ great fame. 
G2 |G2 F2 E2 |D2 E2 D2 |D E3 D2 | d4 
w:For cru-el bad us-age of ev'-ry de-gree, 
e2 |e4 BB |c B3 A2 |B3 A G2 | A4
w:Like slaves in the gal-ley we ploughed the salt sea.
 GF |E6 |B6 |A2 G2 F2 | E4  |]
w: Der-ry down, down, Down, der-ry down. 